X:1
T:Spinnrocksmakarvalsen
R:Vals
O:Ort, Medelpad
M:3/4
L:1/8
Q:200
K:G
D2 |: !segno! G4 G2 | Bc d2 d2 | ef gf ed | cB AG FG | A2 d2 d2 | fg a2 a2 | fa fd ef | g2 dc BA | G4 G2 | Bc d2 d2 | ef gf ed | cB AG FG | A2 d2 d2 | fg a2 a2 | fa fd ef |1g4 D2 :|2 g4 g2 [K:D] |: [A2f2] a2 a2 | a2 fa fd | dc c2 c2 | A4 A2 | A2 gg gg | g2 fg ec | dc df ed | cB AG FE | D2 aa aa a2 fa fd | dc c2 c2 | A4 A2 | A2 gg gg | g2 fg ec | dc df ec |1 d4 A2 :|2 d3 "_rit." =c BA "_D.S." |]

